images/footer/instagram.svg

<svg width="24" height="25" viewBox="0 0 24 25" fill="none" xmlns="http://www.w3.org/2000/svg">
<path d="M17 2.01562H7C4.23858 2.01562 2 4.2542 2 7.01562V17.0156C2 19.777 4.23858 22.0156 7 22.0156H17C19.7614 22.0156 22 19.777 22 17.0156V7.01562C22 4.2542 19.7614 2.01562 17 2.01562Z" stroke="#02897A" stroke-width="2" stroke-linecap="round" stroke-linejoin="round"/>
<path d="M16 11.3859C16.1234 12.2182 15.9812 13.0681 15.5937 13.8149C15.2062 14.5617 14.5931 15.1673 13.8416 15.5456C13.0901 15.9239 12.2384 16.0555 11.4077 15.9219C10.5771 15.7882 9.80971 15.396 9.21479 14.8011C8.61987 14.2062 8.22768 13.4388 8.09402 12.6081C7.96035 11.7775 8.09202 10.9258 8.47028 10.1743C8.84854 9.42278 9.45414 8.80967 10.2009 8.42217C10.9477 8.03467 11.7977 7.89251 12.63 8.01593C13.4789 8.14181 14.2648 8.53739 14.8716 9.14423C15.4785 9.75108 15.8741 10.537 16 11.3859Z" stroke="#02897A" stroke-width="2" stroke-linecap="round" stroke-linejoin="round"/>
<path d="M17.5 6.51562H17.51" stroke="#02897A" stroke-width="2" stroke-linecap="round" stroke-linejoin="round"/>
</svg>

<svg xmlns="http://www.w3.org/2000/svg" width="24" height="25" fill="none"><path stroke="#02897A" stroke-linecap="round" stroke-linejoin="round" stroke-width="2" d="M17 2.016H7a5 5 0 0 0-5 5v10a5 5 0 0 0 5 5h10a5 5 0 0 0 5-5v-10a5 5 0 0 0-5-5Z"/><path stroke="#02897A" stroke-linecap="round" stroke-linejoin="round" stroke-width="2" d="M16 11.386a4 4 0 1 1-7.913 1.173A4 4 0 0 1 16 11.386ZM17.5 6.516h.01"/></svg>
